gos-pohoronq/img/plus.svg

<svg width="22" height="22" viewBox="0 0 22 22" fill="none" xmlns="http://www.w3.org/2000/svg">
<path fill-rule="evenodd" clip-rule="evenodd" d="M11 22C17.0751 22 22 17.0751 22 11C22 4.92487 17.0751 0 11 0C4.92487 0 0 4.92487 0 11C0 17.0751 4.92487 22 11 22ZM11 5.5C11.5695 5.5 12.0312 5.96171 12.0312 6.53125V9.96875H15.4688C16.0383 9.96875 16.5 10.4305 16.5 11C16.5 11.5695 16.0383 12.0312 15.4688 12.0312H12.0312V15.4688C12.0312 16.0383 11.5695 16.5 11 16.5C10.4305 16.5 9.96875 16.0383 9.96875 15.4688V12.0312H6.53125C5.96171 12.0312 5.5 11.5695 5.5 11C5.5 10.4305 5.96171 9.96875 6.53125 9.96875H9.96875V6.53125C9.96875 5.96171 10.4305 5.5 11 5.5Z" fill="white"/>
</svg>

<svg width="22" height="22" fill="none" xmlns="http://www.w3.org/2000/svg"><path fill-rule="evenodd" clip-rule="evenodd" d="M11 22c6.075 0 11-4.925 11-11S17.075 0 11 0 0 4.925 0 11s4.925 11 11 11zm0-16.5c.57 0 1.031.462 1.031 1.031V9.97h3.438a1.031 1.031 0 010 2.062H12.03v3.438a1.031 1.031 0 01-2.062 0v-3.44H6.53a1.031 1.031 0 110-2.062h3.44V6.53c0-.57.462-1.031 1.031-1.031z" fill="#fff"/></svg>
